dist/svg/picture.svg

<!-- Generated by Trend Micro Style Portal -->
<svg version="1.1" xmlns="http://www.w3.org/2000/svg" width="16" height="16" viewBox="0 0 16 16">
  <title>picture</title>
  <path fill="rgb(34,34,34)" d="M15 1h-14c-0.5 0-1 0.5-1 1v12c0 0.5 0.5 1 1 1h14c0.5 0 1-0.5 1-1v-12c0-0.6-0.4-1-1-1zM15 14h-14v-12h14v12zM14 13h-12v-3l2.5-3 2.5 2.5 3.5-4.5 3.5 4v4zM3 4.5c0-0.8 0.7-1.5 1.5-1.5s1.5 0.7 1.5 1.5c0 0.8-0.7 1.5-1.5 1.5s-1.5-0.7-1.5-1.5z"></path>
</svg>

<svg width="16" height="16" viewBox="0 0 16 16" fill="rgb(34, 34, 34)" xmlns="http://www.w3.org/2000/svg"><title>picture</title><path d="M15 1H1C0.5 1 0 1.5 0 2V14C0 14.5 0.5 15 1 15H15C15.5 15 16 14.5 16 14V2C16 1.4 15.6 1 15 1ZM15 14H1V2H15V14ZM14 13H2V10L4.5 7L7 9.5L10.5 5L14 9V13ZM3 4.5C3 3.7 3.7 3 4.5 3C5.3 3 6 3.7 6 4.5C6 5.3 5.3 6 4.5 6C3.7 6 3 5.3 3 4.5Z" fill="rgb(34, 34, 34)" fill-opacity="1.00"/></svg>
